X: 1
T:Rakish Paddy  "Arranged by Terry Tully"
M:C
L:1/8
Q:80
C:Traditional Irish
S:Reel
K:HP
[| {gf}g2{a}gf{gf}g2{a}ef|
{a}gf{g}ed{g}Bd{g}d{c}d|
{g}ea{g}aga{g}a{g}ag|  !
{a}eaed{g}cd{g}ed{gf}g2{a}gf{gf}g2{a}ef|
{a}gf{g}ed{g}Bd{g}d{c}d|
{g}AB{g}cd{g}ef{a}ge|  !
ag{a}ed{g}cA{gAGAG}A2|] [|
{g}eg{a}fgag{a}fg|
{a}eg{a}fg{a}ed{g}Bd|  !
{g}ea{g}aga{g}a{g}ag|
{a}eaed{g}cd{g}eg{g}eg{a}fgag{a}fg|
{a}ef{e}fe{g}de{g}fg|  !
af{a}ge{g}fd{g}eg|
ag{a}ed{g}cA{gAGAG}A2|]
